assets/Woman playing handball/Medium-Light/Flat/woman_playing_handball_flat_medium-light.svg

<svg width="32" height="32" viewBox="0 0 32 32" fill="none" xmlns="http://www.w3.org/2000/svg">
<path d="M16.1103 7.54004L17.2803 9.53004L15.2503 10.75L14.0803 8.72004L16.1103 7.54004Z" fill="#E4B29A"/>
<path d="M23.5294 8.74395L24.7097 5.5105L24.8402 5.19009C24.9302 4.94009 25.1002 4.45009 24.9902 4.17009C24.8802 3.90009 24.5302 3.62009 24.1102 3.48009C24.1102 3.48009 23.5902 3.32009 23.1402 3.42009C22.8002 3.50009 22.8602 3.89009 22.8602 3.89009C22.8602 3.89009 22.7402 3.98009 22.4402 4.20009C22.1429 4.41245 22.2727 4.80522 22.4207 5.08128L21.3721 7.95373C21.2721 8.22294 21.0389 8.41273 20.7695 8.45568L20.7541 8.45813L17.2688 9.111L17.6918 11.3691L21.1483 10.7217C22.2505 10.5395 23.1496 9.7726 23.5279 8.74794L23.5294 8.74395ZM6.44034 13.5699C6.63249 13.7435 6.8525 13.8719 7.08607 13.954C10.4007 15.7783 14.5813 14.6401 16.4935 11.3467L14.5068 10.1931C13.2195 12.4101 10.3971 13.1741 8.16381 11.9246L7.74034 11.5499C7.38034 11.2399 6.92034 11.0599 6.44034 11.0599H5.07034C4.82034 11.0499 4.62034 11.2399 4.60034 11.4799H4.49034C4.23034 11.4799 4.01034 11.6799 4.00034 11.9399C3.99034 12.1999 4.20034 12.4199 4.47034 12.4299C4.46034 12.4699 4.45034 12.5199 4.45034 12.5699C4.45034 12.8299 4.66034 13.0399 4.92034 13.0399H5.84034L6.44034 13.5699ZM8.58936 22.5H11.0476C11.0041 22.5852 10.9802 22.6809 10.9802 22.7799L11.0002 28.0299H9.00025L8.58936 22.5ZM19.5 24.7854L25.0902 24.9L24.9002 23.1L19.5002 22.27L19.5 22.269V24.7854Z" fill="#EEBFAA"/>
<path d="M15.0203 18.8001L16.6303 22.7301L19.1403 21.8801C19.7503 21.6701 20.0903 21.0101 19.8903 20.3901L18.7703 16.8301L15.0203 18.8001Z" fill="#636363"/>
<path d="M10.9702 18.8899L12.8002 21.8399C13.2002 22.4999 14.1002 22.6499 14.6902 22.1399L17.6702 19.5799C17.6702 19.5799 18.9202 18.4199 18.8602 17.4699C18.8002 16.5199 18.3602 15.6499 18.3602 15.6499L13.3402 17.6799" fill="#9B9B9B"/>
<path d="M24.5401 6.02995L22.2801 5.19995C22.2801 5.19995 21.9101 6.29995 21.8901 6.53995L24.0801 7.27995L24.5401 6.02995ZM13.8302 10.53C13.5002 10.92 11.9902 14.37 13.3402 17.68L18.7102 16.58C18.8362 16.3701 18.7498 16.2357 18.626 16.043C18.5435 15.9145 18.4442 15.7601 18.3802 15.54C17.9318 13.9804 17.9775 12.6583 17.9801 12.5833L17.9802 12.58C17.7302 12.3 17.5702 12.54 17.5702 12.54L13.8302 10.53ZM6.54028 13.68L7.93028 11.72C8.58028 12.06 9.06028 12.32 9.05028 12.32L7.70028 14.29C7.48028 14.21 6.54028 13.68 6.54028 13.68ZM11.6103 22.0899C11.9603 21.9599 12.6703 21.6199 12.6703 21.6199L10.9703 18.8899L9.29027 19.7799C9.29027 19.7799 8.77027 19.9299 8.52027 20.4299C8.09027 21.2899 8.60027 22.5899 8.60027 22.5899H10.9703C10.9703 22.5899 11.1903 22.2499 11.6103 22.0899ZM19.9501 22.33V24.79C19.9501 24.79 18.0001 25.03 17.4901 24.57C17.0501 24.18 16.9101 23.72 16.6301 22.73L19.3901 21.78L19.5001 22.27L19.9501 22.33Z" fill="#8B62BF"/>
<path d="M14.6733 3.61703L13.4733 3.62703C12.4533 3.62703 11.6333 4.46703 11.6433 5.47703V5.98703C11.6433 6.14703 11.6033 6.30703 11.5233 6.44703C11.2733 6.87703 11.1633 6.90703 11.1533 7.11703C11.1333 7.43703 11.4333 7.51703 11.5833 7.53703C11.6233 7.53703 11.6533 7.57703 11.6633 7.61703C11.6933 8.75703 11.9133 9.57703 13.2733 9.56703C14.1033 9.56703 15.4133 9.13703 15.7833 8.15703L16.1233 6.83703L16.5133 5.44703C16.5233 4.43703 15.6833 3.60703 14.6733 3.61703Z" fill="#EEBFAA"/>
<path d="M11.6098 3.47999C11.7798 2.84999 12.4098 2.23999 13.0298 2.46999C13.7198 2.68999 13.8498 2.87999 14.6898 2.62999C15.9298 2.25999 17.7698 2.43999 17.8198 4.44999C17.8398 5.14999 17.7798 5.67999 17.6898 6.06999C17.6198 6.39999 17.7298 6.74999 17.9898 6.97999C18.0498 7.02999 18.1098 7.08999 18.1698 7.15999C18.4698 7.50999 18.6098 7.97999 18.5198 8.42999C18.3398 9.40999 17.4398 9.92999 16.5998 9.74999C16.5498 9.73999 16.5098 9.72999 16.4598 9.70999C16.4198 9.69999 16.3798 9.68999 16.3398 9.67999C15.4298 9.39999 14.8398 8.54999 14.8498 7.60999L14.8598 5.78999C14.8598 5.52999 14.7698 5.28999 14.6198 5.09999C14.4898 4.93999 14.3098 4.83999 14.1098 4.80999H14.0998C13.9298 4.77999 13.7598 4.80999 13.6098 4.87999C13.3598 4.99999 13.0698 5.04999 12.7798 5.01999C12.6298 4.99999 12.4798 4.95999 12.3498 4.90999C12.1898 4.83999 12.0498 4.75999 11.9598 4.66999C11.6398 4.37999 11.4898 3.91999 11.6098 3.47999Z" fill="#FFF9BA"/>
<path d="M18.0875 11.9113C18.066 12.1389 18.0252 12.3848 17.9601 12.65C17.4601 14.71 13.6301 11.02 13.6301 11.02C13.6301 11.02 13.9201 9.81996 14.9901 9.41996C15.4262 9.25574 15.8061 9.19653 16.1267 9.19605L19.2503 8.72998L19.5603 11.06C19.6003 11.37 19.4003 11.65 19.0903 11.71L18.0875 11.9113Z" fill="#A17FD5"/>
<path d="M22.5 6C23.6046 6 24.5 5.10457 24.5 4C24.5 2.89543 23.6046 2 22.5 2C21.3954 2 20.5 2.89543 20.5 4C20.5 5.10457 21.3954 6 22.5 6Z" fill="#CDC4D6"/>
<path d="M25.6265 22.4609L24.2465 22.9709L24.1565 24.8209L26.8665 27.0809C27.1765 27.3009 27.5865 26.9809 27.4565 26.6209L25.9765 22.6209C25.9265 22.4809 25.7665 22.4109 25.6265 22.4609Z" fill="#533566"/>
<path d="M11 29.07L10.99 27.6L8.904 27L6.164 28.65C5.854 28.87 6.014 29.36 6.394 29.36L10.73 29.34C10.88 29.34 11 29.22 11 29.07Z" fill="#533566"/>
<path d="M14.8408 5.79004C15.2508 5.80004 15.5808 6.14004 15.5808 6.55004C15.5808 6.96004 15.2308 7.29004 14.8208 7.29004" fill="#EEBFAA"/>
<path d="M12.1503 6.5301C12.0803 6.5301 12.0203 6.4601 12.0203 6.3801V6.3701C12.0303 6.0301 12.3203 5.8501 12.6003 5.8501C12.8803 5.8501 13.1703 6.0501 13.1603 6.3901V6.4001C13.1603 6.4801 13.1003 6.5501 13.0303 6.5501L12.1503 6.5301Z" fill="white"/>
<path d="M12.0503 6.52993C12.0403 6.47993 12.0303 6.42993 12.0303 6.36993C12.0303 6.11993 12.1903 5.92993 12.3903 5.92993C12.5803 5.92993 12.7403 6.12993 12.7303 6.37993C12.7303 6.43993 12.7203 6.48993 12.7003 6.53993L12.0503 6.52993Z" fill="#7D4533"/>
<path d="M12.1604 6.53012C12.1304 6.49012 12.1204 6.43012 12.1204 6.37012C12.1204 6.23012 12.2104 6.12012 12.3204 6.12012C12.4304 6.12012 12.5204 6.24012 12.5204 6.38012C12.5204 6.44012 12.5004 6.49012 12.4704 6.54012L12.1604 6.53012Z" fill="black"/>
<path d="M12.2753 6.19898C12.276 6.14928 12.2453 6.10851 12.2066 6.10792C12.168 6.10733 12.136 6.14714 12.1353 6.19684C12.1345 6.24654 12.1652 6.28731 12.2039 6.2879C12.2425 6.28849 12.2745 6.24868 12.2753 6.19898Z" fill="white"/>
<path d="M12.8319 7.62392C12.8961 7.64683 12.9295 7.71741 12.9066 7.78157C12.7841 8.1246 12.4042 8.30956 12.0589 8.18625C11.9948 8.16333 11.9614 8.09275 11.9843 8.0286C12.0072 7.96444 12.0778 7.93101 12.1419 7.95392C12.3566 8.03061 12.5968 7.91557 12.6743 7.6986C12.6972 7.63444 12.7678 7.60101 12.8319 7.62392Z" fill="#990838"/>
<path d="M13.1714 5.37631C13.2287 5.42109 13.239 5.50392 13.1942 5.56124C13.1494 5.61853 13.0667 5.62871 13.0094 5.58401L13.0084 5.58328L13.0005 5.57763C12.993 5.57238 12.981 5.56437 12.9648 5.5546C12.9324 5.53504 12.8838 5.50872 12.8213 5.48362C12.6963 5.43339 12.518 5.38886 12.304 5.41115C12.2317 5.41869 12.1669 5.36615 12.1594 5.29381C12.1519 5.22146 12.2044 5.15671 12.2768 5.14917C12.5428 5.12146 12.7645 5.17693 12.9195 5.23921C12.997 5.27036 13.0584 5.3034 13.101 5.32916C13.1223 5.34205 13.1391 5.35317 13.1509 5.3614L13.165 5.37145C13.165 5.37145 13.1675 5.37336 13.1692 5.37461L13.1706 5.37567L13.1714 5.37631Z" fill="#A56953"/>
</svg>

<svg xmlns="http://www.w3.org/2000/svg" width="32" height="32" fill="none"><path fill="#E4B29A" d="m16.11 7.54 1.17 1.99-2.03 1.22-1.17-2.03 2.03-1.18Z"/><path fill="#EEBFAA" d="m23.53 8.744 1.18-3.233.13-.32c.09-.25.26-.74.15-1.02-.11-.27-.46-.55-.88-.69 0 0-.52-.16-.97-.06-.34.08-.28.47-.28.47s-.12.09-.42.31c-.297.211-.167.604-.02.88l-1.048 2.873a.78.78 0 0 1-.602.502l-.016.002-3.485.653.423 2.258 3.456-.647a3.077 3.077 0 0 0 2.38-1.974l.001-.004ZM6.44 13.57c.192.173.412.302.646.384a6.981 6.981 0 0 0 9.408-2.607l-1.987-1.154a4.684 4.684 0 0 1-6.343 1.732l-.424-.375c-.36-.31-.82-.49-1.3-.49H5.07a.454.454 0 0 0-.47.42h-.11c-.26 0-.48.2-.49.46-.01.26.2.48.47.49a.47.47 0 0 0 .45.61h.92l.6.53Zm2.15 8.93h2.458a.615.615 0 0 0-.068.28l.02 5.25H9l-.41-5.53Zm10.91 2.285 5.59.115-.19-1.8-5.4-.83v-.001 2.516Z"/><path fill="#636363" d="m15.02 18.8 1.61 3.93 2.51-.85c.61-.21.95-.87.75-1.49l-1.12-3.56-3.75 1.97Z"/><path fill="#9B9B9B" d="m10.97 18.89 1.83 2.95c.4.66 1.3.81 1.89.3l2.98-2.56s1.25-1.16 1.19-2.11c-.06-.95-.5-1.82-.5-1.82l-5.02 2.03"/><path fill="#8B62BF" d="m24.54 6.03-2.26-.83s-.37 1.1-.39 1.34l2.19.74.46-1.25Zm-10.71 4.5c-.33.39-1.84 3.84-.49 7.15l5.37-1.1c.126-.21.04-.344-.084-.537-.082-.128-.182-.283-.246-.503a10.26 10.26 0 0 1-.4-2.957v-.003c-.25-.28-.41-.04-.41-.04l-3.74-2.01Zm-7.29 3.15 1.39-1.96c.65.34 1.13.6 1.12.6L7.7 14.29c-.22-.08-1.16-.61-1.16-.61Zm5.07 8.41c.35-.13 1.06-.47 1.06-.47l-1.7-2.73-1.68.89s-.52.15-.77.65c-.43.86.08 2.16.08 2.16h2.37s.22-.34.64-.5Zm8.34.24v2.46s-1.95.24-2.46-.22c-.44-.39-.58-.85-.86-1.84l2.76-.95.11.49.45.06Z"/><path fill="#EEBFAA" d="m14.673 3.617-1.2.01c-1.02 0-1.84.84-1.83 1.85v.51c0 .16-.04.32-.12.46-.25.43-.36.46-.37.67-.02.32.28.4.43.42.04 0 .07.04.08.08.03 1.14.25 1.96 1.61 1.95.83 0 2.14-.43 2.51-1.41l.34-1.32.39-1.39c.01-1.01-.83-1.84-1.84-1.83Z"/><path fill="#FFF9BA" d="M11.61 3.48c.17-.63.8-1.24 1.42-1.01.69.22.82.41 1.66.16 1.24-.37 3.08-.19 3.13 1.82.02.7-.04 1.23-.13 1.62-.07.33.04.68.3.91.06.05.12.11.18.18.3.35.44.82.35 1.27-.18.98-1.08 1.5-1.92 1.32a.737.737 0 0 1-.14-.04l-.12-.03c-.91-.28-1.5-1.13-1.49-2.07l.01-1.82c0-.26-.09-.5-.24-.69a.805.805 0 0 0-.51-.29h-.01c-.17-.03-.34 0-.49.07-.25.12-.54.17-.83.14-.15-.02-.3-.06-.43-.11-.16-.07-.3-.15-.39-.24-.32-.29-.47-.75-.35-1.19Z"/><path fill="#A17FD5" d="M18.087 11.911a5.118 5.118 0 0 1-.127.739c-.5 2.06-4.33-1.63-4.33-1.63s.29-1.2 1.36-1.6a3.232 3.232 0 0 1 1.137-.224l3.123-.466.31 2.33a.58.58 0 0 1-.47.65l-1.003.201Z"/><path fill="#CDC4D6" d="M22.5 6a2 2 0 1 0 0-4 2 2 0 0 0 0 4Z"/><path fill="#533566" d="m25.627 22.46-1.38.51-.09 1.85 2.71 2.26c.31.22.72-.1.59-.46l-1.48-4a.274.274 0 0 0-.35-.16ZM11 29.07l-.01-1.47-2.086-.6-2.74 1.65c-.31.22-.15.71.23.71l4.336-.02c.15 0 .27-.12.27-.27Z"/><path fill="#EEBFAA" d="M14.84 5.79c.41.01.74.35.74.76 0 .41-.35.74-.76.74"/><path fill="#fff" d="M12.15 6.53c-.07 0-.13-.07-.13-.15v-.01c.01-.34.3-.52.58-.52.28 0 .57.2.56.54v.01c0 .08-.06.15-.13.15l-.88-.02Z"/><path fill="#7D4533" d="M12.05 6.53a.777.777 0 0 1-.02-.16c0-.25.16-.44.36-.44.19 0 .35.2.34.45 0 .06-.01.11-.03.16l-.65-.01Z"/><path fill="#000" d="M12.16 6.53a.273.273 0 0 1-.04-.16c0-.14.09-.25.2-.25.11 0 .2.12.2.26 0 .06-.02.11-.05.16l-.31-.01Z"/><path fill="#fff" d="M12.275 6.199c.001-.05-.03-.09-.068-.091-.039 0-.071.04-.072.089 0 .05.03.09.069.09.038.001.07-.038.071-.088Z"/><path fill="#990838" d="M12.832 7.624a.123.123 0 0 1 .075.158.666.666 0 0 1-.848.404.123.123 0 0 1 .083-.232.42.42 0 0 0 .532-.255.123.123 0 0 1 .158-.075Z"/><path fill="#A56953" d="M13.171 5.376a.132.132 0 0 1-.162.208L13 5.577a1.002 1.002 0 0 0-.18-.094 1.083 1.083 0 0 0-.517-.073.132.132 0 1 1-.027-.262 1.346 1.346 0 0 1 .874.212l.014.01.004.004h.002v.001Z"/></svg>
